X: 1940
T: Visâl-i Yâr ile Mest Ol
C: Râkım Elkutlu
O: Turkey
F: http://compmusic.upf.edu/node/140
N: hicazkar--sarki--duyek--visali_yar--rakim_elkutlu
N: makam= hicazkar
N: form= sarki
N: usul= duyek = 8/4
M: 8/4
L: 1/16
K: C _1/4B _7/8e _7/8A ^f
Q: 1/4=132
%%MIDI tuningsystem comma53
f2 g4 d2 (3ede (3fef g2 =a2  | =a3g f2 ga g2 a4 d'2  | \
w:  Vi sâl_ i  yâr_ *  *  *  *  *  i le   |  mest  *  *  *  *  ol   | 
c'2 _b2 =a2 g2 f3e fe ed  | 
w:  ha ya *  le  dal *  ma  *  gö  | 
d6 g2 f3/2e/ dc BA G2  | f2 g4 d2 (3ede (3fef g2 =a2  | \
w:  nül   SAZ  |  Vi sâl_ i  yâr_ *  *  *  *  *  i le   | 
=a3g f2 ga g2 a4 d'2  | 
w:  mest  *  *  *  *  ol   | 
c'2 _b2 =a2 g2 f3e fe ed  | d6 (3_7/8b=ag fe ed d4  | \
w:  ha ya *  le  dal *  ma  *  gö  |  nül   SAZ  | 
c2 B4 g2 g4 g2 g=f  | 
w:  Du dak tan_ iç me yi   | 
=f8 fe ed e4  | d2 =f2 e2 dc B2 c2 d2 ed  | \
w:  câ nân   |  e lin *  den  *  al *  ma  gö  | 
d6 cd e3/2d/ ef g4  | 
w:  nül   SAZ  | 
g2 b2 a2 ag g3f f2 {g}fe  | a8 g3/2f/ ed cB AG  | \
w:  Du dak *  tan_ *  iç *  me *  yi   |  câ nân   | 
Bc _7/8d4 cB (3agf (3e=dc BA AG  | 
w:  e *  lin den  *  al *  *  *  *  *  ma  *  gö  | 
G6 (3edc BA AG G4  | f2 g4 d2 e3/2f/ ed c4  | \
w:  nül   SAZ  |   | 
g2 a4 c'2 ba gf g4  | 
w:   | 
(3d2c2d2 (3e2d2e2 (3f2e2f2 g2 a2  | \
w:   | 
g2 c'4 =ba ba gf g4  | =f2 f4 g2 g2 {=a}gf g2 a2  | 
w:   |  Ge çer  ba ha *  *  *  rı  o   | 
_7/8b=a bc' a2 g2 g=f ga f2 (3=edc  | \
w:  hüs *  *  *  *  *  nün   | 
=a2 _b4 ag c'b ag =fe ed  | 
w:  ha za na  *  kal *  *  *  ma  *  gö  | 
d6 (3_7/8b=ag fe ed d4  | =a2 _7/8b4 ag =fe dc _B4  | \
w:  nül   SAZ  |   | 
=a2 _7/8b2 a2 g2 ag fg a4  | 
w:   | 
(3g2f2g2 (3=a2g2a2 (3_b2a2b2 (3c'2b2c'2  | \
w:   | 
c'2 d'4 d'c' c'_7/8b b=a b4  | 
w:   | 
c'2 d'4 d'2 d'2 c'2 _7/8b2 =a2  | \
w:  Rü bâb_ ı  aş *  kı nı   | 
g2 f2 e2 d2 dc cB c4  | =a2 c'2 _b2 ag c'2 ba ag gf  | 
w:  hic *  *  *  ran   |  yo lun *  da  *  çal *  *  ma  *  gö  | 
g6 fa g3/2f/ ed cB c2  | c2 B4 g2 g4 g2 g=f  | \
w:  nül   SAZ  |  Du dak tan_ iç me yi   | 
=f8 fe ed e4  | 
w:  câ nân   | 
d2 =f2 e2 dc B2 c2 d2 ed  | d6 cd e3/2d/ ef g4  | \
w:  e lin *  den  *  al *  ma  gö  |  nül   SAZ  | 
g2 b2 a2 ag g3f f2 {g}fe  | 
w:  Du dak *  tan_ *  iç *  me *  yi   | 
a8 g3/2f/ ed cB AG  | Bc _7/8d4 cB (3agf (3e=dc BA AG  | 
w:  câ nân   |  e *  lin den  *  al *  *  *  *  *  ma  *  gö  | 
G6 (3edc BA AG G4  | |


